X:905
T:Flynn's Reel
R:reel
C:Eamon Flynn
S:Brian Carolan
Z:id:hn-reel-905
M:C|
L:1/8
K:Edor
E2GB eBdB | GBAG FDDF | EDEF GFGA | Bdef (3gfe fd |
eagf eEEF | GBAG FDDF | EDEF GBed |1 BAGF GEED :|2 BAGF GEEA ||
|: Beef ~g3f | edBG EGBG | Adde ~f3e | dBAF DEFA |
Beef ~g3f | edBG EGBG | Adde fdec |1 dBAF E3A :|2 dBAF E2ED ||
	

